Newaita/actions/22/call-start.svg

<svg height="22" viewBox="0 0 22 22" width="22" xmlns="http://www.w3.org/2000/svg"><g fill="#424242"><path d="m16.023438 19.109375-2.273438-3.9375c-.25-.433594-.101562-.992187.332031-1.242187l.789063-.457032c.433594-.25.992187-.101562 1.242187.335938l2.273438 3.9375c.25.433594.101562.992187-.332031 1.242187l-.789063.453125c-.433594.253906-.992187.105469-1.242187-.332031zm0 0" fill-opacity=".986348"/><path d="m7.765625 13.902344c.90625 1.574218 4.320313 7.480468 7.863281 5.433594l-2.273437-3.9375c-1.179688.683593-3.105469-.832032-4.015625-2.40625-.910156-1.578126-1.257813-4-.078125-4.683594l-2.273438-3.9375c-3.542969 2.046875-.132812 7.953125.777344 9.53125zm0 0"/><path d="m7.382812 4.144531 2.273438 3.9375c.25.433594.808594.582031 1.242188.332031l.789062-.453124c.433594-.253907.582031-.808594.332031-1.242188l-2.273437-3.941406c-.25-.433594-.808594-.582032-1.242188-.332032l-.789062.457032c-.433594.25-.582032.804687-.332032 1.242187zm0 0" fill-opacity=".986348"/></g></svg>

<svg xmlns="http://www.w3.org/2000/svg" xmlns:xlink="http://www.w3.org/1999/xlink" width="22px" height="22px" viewBox="0 0 22 22" version="1.1">
<g id="surface1">
<path style=" stroke:none;fill-rule:nonzero;fill:rgb(25.882354%,25.882354%,25.882354%);fill-opacity:0.986348;" d="M 16.023438 19.109375 L 13.75 15.171875 C 13.5 14.738281 13.648438 14.179688 14.082031 13.929688 L 14.871094 13.472656 C 15.304688 13.222656 15.863281 13.371094 16.113281 13.808594 L 18.386719 17.746094 C 18.636719 18.179688 18.488281 18.738281 18.054688 18.988281 L 17.265625 19.441406 C 16.832031 19.695312 16.273438 19.546875 16.023438 19.109375 Z M 16.023438 19.109375 "/>
     <defs>
  <style id="current-color-scheme" type="text/css">
   .ColorScheme-Text { color:#424242; } .ColorScheme-Highlight { color:#eeeeee; }
  </style>
 </defs>
<path style="fill:currentColor" class="ColorScheme-Text" d="M 7.765625 13.902344 C 8.671875 15.476562 12.085938 21.382812 15.628906 19.335938 L 13.355469 15.398438 C 12.175781 16.082031 10.25 14.566406 9.339844 12.992188 C 8.429688 11.414062 8.082031 8.992188 9.261719 8.308594 L 6.988281 4.371094 C 3.445312 6.417969 6.855469 12.324219 7.765625 13.902344 Z M 7.765625 13.902344 "/>
<path style=" stroke:none;fill-rule:nonzero;fill:rgb(25.882354%,25.882354%,25.882354%);fill-opacity:0.986348;" d="M 7.382812 4.144531 L 9.65625 8.082031 C 9.90625 8.515625 10.464844 8.664062 10.898438 8.414062 L 11.6875 7.960938 C 12.121094 7.707031 12.269531 7.152344 12.019531 6.71875 L 9.746094 2.777344 C 9.496094 2.34375 8.9375 2.195312 8.503906 2.445312 L 7.714844 2.902344 C 7.28125 3.152344 7.132812 3.707031 7.382812 4.144531 Z M 7.382812 4.144531 "/>
</g>
</svg>
